X:5
T:Eglantine
C:Cliff Stapleton
R:walzer
A:England
Z:abc transcription Simon Wascher
M:3/4
L:1/4
K:D
A/F/ |\
DFA | d>c d/e/ | fe/f/ e/d/ | A2F |\
GBd | Ace | d>c d/e/ | fdA |
DFA | d>c d/e/ | fe/f/ e/d/ | A2F |\
GBd | Ace | d>ed/c/ | d2 :|
|: d/e/ |\
fe/f/ e/d/ | gf/g/ f/e/ | fe/f/ e/d/ | A2F |\
GBd | Ace | d>c d/e/ | fdd/e/ |
fe/f/ e/d/ | gf/g/ f/e/ | fe/f/ e/d/ | A2F |\
GBd | Ace | d>e d/c/ | d2 :|
